public/avatar/item2/3.svg

<svg xmlns:xlink="http://www.w3.org/1999/xlink" height="99.2" width="82.2" xmlns="http://www.w3.org/2000/svg"><use height="18.65" transform="translate(13.85 67.25)" width="34" xlink:href="#a"/><defs><g id="a" fill-rule="evenodd"><path d="M2.05 38.5q-1.25.65-2.3.65-1 0-2.4-1l-1.3-1.2.25-1q-1-1.75-1-3.05 0-1.05.95-2.25 1.35-1.7 3.75-1.7t3.6 2q.8 1.3.8 2.4Q4.3 35 3.25 36.1l.05 1.4-1.25 1" transform="translate(17.15 -20.5)"/><path d="M3.5 33.35q0 1.5-1.05 2.55Q1.4 36.95-.1 36.95q-1.45 0-2.5-1.05t-1.05-2.55q0-1.45 1.05-2.5t2.5-1.05q1.5 0 2.55 1.05 1.05 1.05 1.05 2.5" fill="#c2934e" transform="translate(17.15 -20.5)"/><path d="M2.4 35.25 2.75 37q-1.65 1.3-2.9 1.3-.8 0-1.9-.7l-.95-.7.3-1.85 5.1.2" fill="#c2934e" transform="translate(17.15 -20.5)"/><path d="M2.5 33.25q0 .95-.95.95t-.95-.95q0-.9.95-.9t.95.9m-3.35 0q0 .95-.9.95-.95 0-.95-.95 0-.9.95-.9.9 0 .9.9m.25 2.45.55-1.4.45 1.4h-1" transform="translate(17.15 -20.5)"/><path d="M-3.65 33.35q.1-1.75 1.2-2.65.9-.75 2.2-.85l1.1.05-1.25.35q-1.4.5-1.9 1.15l-1.35 1.95m3.55 0 .1.55-.55 1.3-.55-.25 1-1.6m-2.5 2.3 2 .7q-.45 1.05-.95 1.05l-1.15-.8.1-.95" fill="#ffc567" transform="translate(17.15 -20.5)"/><path d="m13.45 22.05.9-.15.45-.95.7-.2.35.15-3.95 5.45L8.55 29 5.3 31.05 4 31.5l-1-1.3q.5-.8 1.2-1.3l1.75-.1q.05-.9.95-1.45l1.45-.1 1.2-1.6 1.2-.25.8-1.5 1.35-.25.55-1.6" transform="translate(17.15 -20.5)"/><path d="M16 23.25q-2.05 3.1-5.15 5.25L4.4 32.75l-.55-1.25-.9-.9v-.15q3.8-1.8 5.95-3.35 3.75-2.65 5.35-4.75l1.25-1.8.35-.05.55.65q.3 1-.4 2.1" transform="translate(17.15 -20.5)"/><path d="m16.05 20.75.7.95q.3.8-.5 1.35l-.15 1.05q-.2.55-1.55 1.15l-.35 1.35q-.75.9-1.85.7l-.5 1.4q-.95.95-2.1.5l-.7 1.45q-.75.5-1.95.3l-.65 1.2q-.65.5-2.2.5l.1-1.25 6.1-4.1 5.6-6.55" transform="translate(17.15 -20.5)"/><path d="M6.5 30.65Q6.6 32 5.25 32.1q-1.3 0-1.4-1.3-.1-1.3 1.25-1.4 1.3-.1 1.4 1.25m2.75-1.55q.1 1.3-1.25 1.4-1.4 0-1.4-1.25-.1-1.35 1.25-1.45 1.3 0 1.4 1.3" fill="#c2934e" transform="translate(17.15 -20.5)"/><path d="M9.1 27.4Q9 26.1 10.35 26q1.4-.1 1.4 1.25.1 1.3-1.25 1.4-1.3.1-1.4-1.25" fill="#c2934e" transform="translate(17.15 -20.5)"/><path d="M12.65 24.05q1.3-.1 1.4 1.25.1 1.3-1.25 1.4-1.35.1-1.45-1.25 0-1.3 1.3-1.4" fill="#c2934e" transform="translate(17.15 -20.5)"/><path d="M15.8 23.3q.1 1.15-1.1 1.25-1.15 0-1.25-1.1-.1-1.25 1.1-1.25 1.15-.1 1.25 1.1" fill="#c2934e" transform="translate(17.15 -20.5)"/><path d="M16.3 21.65q.55.75-.2 1.2-.7.45-1.2-.35t.2-1.2q.75-.45 1.2.35" fill="#c2934e" transform="translate(17.15 -20.5)"/><path d="m-13.2 23.65 1.3.3q.4.25.8 1.5l1.25.25q.8.4 1.15 1.55l1.45.15q.9.55.95 1.4l1.75.15q.7.45 1.2 1.3l-1 1.25-1.35-.45L-8.9 29l-3.35-2.65-3.95-5.4.35-.2.7.2q.25.2.45.95l.9.15q.35.35.6 1.6" transform="translate(17.15 -20.5)"/><path d="M-16.35 23.25q-.7-1.05-.35-2.1.2-.55.55-.65l.35.05 1.2 1.8q1.5 2 5.35 4.75 2.15 1.55 5.95 3.35v.2l-.9.9-.55 1.2-6.45-4.25q-3.1-2.15-5.15-5.25" transform="translate(17.15 -20.5)"/><path d="m-16.4 20.75 5.6 6.6 6.1 4.1.1 1.2-2.25-.45-.6-1.25q-1.2.25-1.95-.3l-.7-1.45q-1.15.45-2.1-.5l-.5-1.4q-1.1.2-1.85-.7l-.35-1.35q-1.35-.6-1.55-1.15l-.15-1.05q-.75-.55-.45-1.35l.65-.95" transform="translate(17.15 -20.5)"/><path d="M-6.85 30.7q.1-1.35 1.4-1.25 1.35.1 1.25 1.4-.1 1.35-1.4 1.25-1.35-.1-1.25-1.4m-2.75-1.6q.1-1.35 1.4-1.25 1.35.1 1.25 1.4 0 1.35-1.4 1.25-1.35-.1-1.25-1.4" fill="#c2934e" transform="translate(17.15 -20.5)"/><path d="M-9.45 27.4q-.1 1.35-1.4 1.25-1.35-.1-1.25-1.4.1-1.35 1.4-1.25 1.35.1 1.25 1.4" fill="#c2934e" transform="translate(17.15 -20.5)"/><path d="M-14.4 25.3q.1-1.35 1.45-1.25 1.35.1 1.25 1.4-.1 1.35-1.4 1.25-1.3 0-1.3-1.4" fill="#c2934e" transform="translate(17.15 -20.5)"/><path d="M-16.15 23.3q.1-1.2 1.25-1.1 1.2.1 1.1 1.25 0 1.2-1.25 1.1-1.1-.1-1.1-1.25" fill="#c2934e" transform="translate(17.15 -20.5)"/><path d="M-16.65 21.65q.45-.8 1.2-.35.7.35.25 1.2-.5.8-1.2.35-.7-.45-.25-1.2" fill="#c2934e" transform="translate(17.15 -20.5)"/><path d="m-16.3 21.4.7.1q.15.3-.35.55-.65.4-.35-.65m.7.8v-.15l1.15.2q.35.35-.4.85l-1.1-.05q-.35-.55.35-.85m1.7 1.95q1-.45 1.2.15.25.55-.6 1-.8.35-1.1-.2-.3-.55.5-.95m2.35 1.95q1-.25 1.15.25.15.45-.8.8-.95.35-1.05-.25-.1-.6.7-.8m2.75 1.85q.85-.4 1.15.15.3.5-.6.85l-1.15-.15q-.2-.45.6-.85m2.55 1.8q1.05-.5 1.3.1.25.65-.7 1-.9.35-1.1-.2-.25-.55.5-.9m10.15.7q.55-.7 1-.6.45.15 0 .9-.6 1.05-1-.3m3.15-2.2q.45-.5.75-.2.25.3-.15 1.15-.45.9-.75.25-.35-.6.15-1.2m2.95-1.2q-.2.8-.6-.2.15-.5.45-.45.3.05.15.65m1.65-2.2q.15-.4.5-.1.4.25.1.75-.35.6-.6.3-.25-.25 0-.95" fill="#ffc567" transform="translate(17.15 -20.5)"/></g></defs></svg>

<?xml version="1.0" encoding="UTF-8" standalone="no"?>
<svg xmlns:xlink="http://www.w3.org/1999/xlink" height="99.2px" width="82.2px" xmlns="http://www.w3.org/2000/svg">
  <g transform="matrix(1.0, 0.0, 0.0, 1.0, 31.0, 46.75)">
    <use height="18.65" transform="matrix(1.0, 0.0, 0.0, 1.0, -17.15, 20.5)" width="34.0" xlink:href="#shape0"/>
  </g>
  <defs>
    <g id="shape0" transform="matrix(1.0, 0.0, 0.0, 1.0, 17.15, -20.5)">
      <path d="M2.05 38.5 Q0.8 39.15 -0.25 39.15 -1.25 39.15 -2.65 38.15 L-3.95 36.95 -3.7 35.95 Q-4.7 34.2 -4.7 32.9 -4.7 31.85 -3.75 30.65 -2.4 28.95 0.0 28.95 2.4 28.95 3.6 30.95 4.4 32.25 4.4 33.35 4.3 35.0 3.25 36.1 L3.3 37.5 2.05 38.5" fill="#000000" fill-rule="evenodd" stroke="none"/>
      <path d="M3.5 33.35 Q3.5 34.85 2.45 35.9 1.4 36.95 -0.1 36.95 -1.55 36.95 -2.6 35.9 -3.65 34.85 -3.65 33.35 -3.65 31.9 -2.6 30.85 -1.55 29.8 -0.1 29.8 1.4 29.8 2.45 30.85 3.5 31.9 3.5 33.35" fill="#c2934e" fill-rule="evenodd" stroke="none"/>
      <path d="M2.4 35.25 L2.75 37.0 Q1.1 38.3 -0.15 38.3 -0.95 38.3 -2.05 37.6 L-3.0 36.9 -2.7 35.05 2.4 35.25" fill="#c2934e" fill-rule="evenodd" stroke="none"/>
      <path d="M2.5 33.25 Q2.5 34.2 1.55 34.2 0.6 34.2 0.6 33.25 0.6 32.35 1.55 32.35 2.5 32.35 2.5 33.25" fill="#000000" fill-rule="evenodd" stroke="none"/>
      <path d="M-0.85 33.25 Q-0.85 34.2 -1.75 34.2 -2.7 34.2 -2.7 33.25 -2.7 32.35 -1.75 32.35 -0.85 32.35 -0.85 33.25" fill="#000000" fill-rule="evenodd" stroke="none"/>
      <path d="M-0.6 35.7 L-0.05 34.3 0.4 35.7 -0.6 35.7" fill="#000000" fill-rule="evenodd" stroke="none"/>
      <path d="M-3.65 33.35 Q-3.55 31.6 -2.45 30.7 -1.55 29.95 -0.25 29.85 L0.85 29.9 -0.4 30.25 Q-1.8 30.75 -2.3 31.4 L-3.65 33.35" fill="#ffc567" fill-rule="evenodd" stroke="none"/>
      <path d="M-0.1 33.35 L0.0 33.9 -0.55 35.2 -1.1 34.95 -0.1 33.35" fill="#ffc567" fill-rule="evenodd" stroke="none"/>
      <path d="M-2.6 35.65 L-0.6 36.35 Q-1.05 37.4 -1.55 37.4 L-2.7 36.6 -2.6 35.65" fill="#ffc567" fill-rule="evenodd" stroke="none"/>
      <path d="M13.45 22.05 L14.35 21.9 14.8 20.95 15.5 20.75 15.85 20.9 11.9 26.35 8.55 29.0 5.3 31.05 4.0 31.5 3.0 30.2 Q3.5 29.4 4.2 28.9 L5.95 28.8 Q6.0 27.9 6.9 27.35 L8.35 27.25 9.55 25.65 10.75 25.4 11.55 23.9 12.9 23.65 13.45 22.05" fill="#000000" fill-rule="evenodd" stroke="none"/>
      <path d="M16.0 23.25 Q13.95 26.35 10.85 28.5 L4.4 32.75 3.85 31.5 2.95 30.6 2.95 30.45 Q6.75 28.65 8.9 27.1 12.65 24.45 14.25 22.35 L15.5 20.55 15.85 20.5 16.4 21.15 Q16.7 22.15 16.0 23.25" fill="#000000" fill-rule="evenodd" stroke="none"/>
      <path d="M16.05 20.75 L16.75 21.7 Q17.05 22.5 16.25 23.05 L16.1 24.1 Q15.9 24.65 14.55 25.25 L14.2 26.6 Q13.45 27.5 12.35 27.3 L11.85 28.7 Q10.9 29.65 9.75 29.2 L9.05 30.65 Q8.3 31.15 7.1 30.95 L6.45 32.15 Q5.8 32.65 4.25 32.65 L4.35 31.4 10.45 27.3 16.05 20.75" fill="#000000" fill-rule="evenodd" stroke="none"/>
      <path d="M6.5 30.65 Q6.6 32.0 5.25 32.1 3.95 32.1 3.85 30.8 3.75 29.5 5.1 29.4 6.4 29.3 6.5 30.65" fill="#c2934e" fill-rule="evenodd" stroke="none"/>
      <path d="M9.25 29.1 Q9.35 30.4 8.0 30.5 6.6 30.5 6.6 29.25 6.5 27.9 7.85 27.8 9.15 27.8 9.25 29.1" fill="#c2934e" fill-rule="evenodd" stroke="none"/>
      <path d="M9.1 27.4 Q9.0 26.1 10.35 26.0 11.75 25.9 11.75 27.25 11.85 28.55 10.5 28.65 9.2 28.75 9.1 27.4" fill="#c2934e" fill-rule="evenodd" stroke="none"/>
      <path d="M12.65 24.05 Q13.95 23.95 14.05 25.3 14.15 26.6 12.8 26.7 11.45 26.8 11.35 25.45 11.35 24.15 12.65 24.05" fill="#c2934e" fill-rule="evenodd" stroke="none"/>
      <path d="M15.8 23.3 Q15.9 24.45 14.7 24.55 13.55 24.55 13.45 23.45 13.35 22.2 14.55 22.2 15.7 22.1 15.8 23.3" fill="#c2934e" fill-rule="evenodd" stroke="none"/>
      <path d="M16.3 21.65 Q16.85 22.4 16.1 22.85 15.4 23.3 14.9 22.5 14.4 21.7 15.1 21.3 15.85 20.85 16.3 21.65" fill="#c2934e" fill-rule="evenodd" stroke="none"/>
      <path d="M-13.2 23.65 L-11.9 23.95 Q-11.5 24.2 -11.1 25.45 L-9.85 25.7 Q-9.05 26.1 -8.7 27.25 L-7.25 27.4 Q-6.35 27.95 -6.3 28.8 L-4.55 28.95 Q-3.85 29.4 -3.35 30.25 L-4.35 31.5 -5.7 31.05 -8.9 29.0 -12.25 26.35 -16.2 20.95 -15.85 20.75 -15.15 20.95 Q-14.9 21.15 -14.7 21.9 L-13.8 22.05 Q-13.45 22.4 -13.2 23.65" fill="#000000" fill-rule="evenodd" stroke="none"/>
      <path d="M-16.35 23.25 Q-17.05 22.2 -16.7 21.15 -16.5 20.6 -16.15 20.5 L-15.8 20.55 -14.6 22.35 Q-13.1 24.35 -9.25 27.1 -7.1 28.65 -3.3 30.45 L-3.3 30.65 -4.2 31.55 -4.75 32.75 -11.2 28.5 Q-14.3 26.35 -16.35 23.25" fill="#000000" fill-rule="evenodd" stroke="none"/>
      <path d="M-16.4 20.75 L-10.8 27.35 -4.7 31.45 -4.6 32.65 -6.85 32.2 -7.45 30.95 Q-8.65 31.2 -9.4 30.65 L-10.1 29.2 Q-11.25 29.65 -12.2 28.7 L-12.7 27.3 Q-13.8 27.5 -14.55 26.6 L-14.9 25.25 Q-16.25 24.65 -16.45 24.1 L-16.6 23.05 Q-17.35 22.5 -17.05 21.7 L-16.4 20.75" fill="#000000" fill-rule="evenodd" stroke="none"/>
      <path d="M-6.85 30.7 Q-6.75 29.35 -5.45 29.45 -4.1 29.55 -4.2 30.85 -4.3 32.2 -5.6 32.1 -6.95 32.0 -6.85 30.7" fill="#c2934e" fill-rule="evenodd" stroke="none"/>
      <path d="M-9.6 29.1 Q-9.5 27.75 -8.2 27.85 -6.85 27.95 -6.95 29.25 -6.95 30.6 -8.35 30.5 -9.7 30.4 -9.6 29.1" fill="#c2934e" fill-rule="evenodd" stroke="none"/>
      <path d="M-9.45 27.4 Q-9.55 28.75 -10.85 28.65 -12.2 28.55 -12.1 27.25 -12.0 25.9 -10.7 26.0 -9.35 26.1 -9.45 27.4" fill="#c2934e" fill-rule="evenodd" stroke="none"/>
      <path d="M-14.4 25.3 Q-14.3 23.95 -12.95 24.05 -11.6 24.15 -11.7 25.45 -11.8 26.8 -13.1 26.7 -14.4 26.7 -14.4 25.3" fill="#c2934e" fill-rule="evenodd" stroke="none"/>
      <path d="M-16.15 23.3 Q-16.05 22.1 -14.9 22.2 -13.7 22.3 -13.8 23.45 -13.8 24.65 -15.05 24.55 -16.15 24.45 -16.15 23.3" fill="#c2934e" fill-rule="evenodd" stroke="none"/>
      <path d="M-16.65 21.65 Q-16.2 20.85 -15.45 21.3 -14.75 21.65 -15.2 22.5 -15.7 23.3 -16.4 22.85 -17.1 22.4 -16.65 21.65" fill="#c2934e" fill-rule="evenodd" stroke="none"/>
      <path d="M-16.3 21.4 L-15.6 21.5 Q-15.45 21.8 -15.95 22.05 -16.6 22.45 -16.3 21.4" fill="#ffc567" fill-rule="evenodd" stroke="none"/>
      <path d="M-15.6 22.2 L-15.6 22.05 -14.45 22.25 Q-14.1 22.6 -14.85 23.1 L-15.95 23.05 Q-16.3 22.5 -15.6 22.2" fill="#ffc567" fill-rule="evenodd" stroke="none"/>
      <path d="M-13.9 24.15 Q-12.9 23.7 -12.7 24.3 -12.45 24.85 -13.3 25.3 -14.1 25.65 -14.4 25.1 -14.7 24.55 -13.9 24.15" fill="#ffc567" fill-rule="evenodd" stroke="none"/>
      <path d="M-11.55 26.1 Q-10.55 25.85 -10.4 26.35 -10.25 26.8 -11.2 27.15 -12.15 27.5 -12.25 26.9 -12.35 26.3 -11.55 26.1" fill="#ffc567" fill-rule="evenodd" stroke="none"/>
      <path d="M-8.8 27.95 Q-7.95 27.55 -7.65 28.1 -7.35 28.6 -8.25 28.95 L-9.4 28.8 Q-9.6 28.35 -8.8 27.95" fill="#ffc567" fill-rule="evenodd" stroke="none"/>
      <path d="M-6.25 29.75 Q-5.2 29.25 -4.95 29.85 -4.7 30.5 -5.65 30.85 -6.55 31.2 -6.75 30.65 -7.0 30.1 -6.25 29.75" fill="#ffc567" fill-rule="evenodd" stroke="none"/>
      <path d="M3.9 30.45 Q4.45 29.75 4.9 29.85 5.35 30.0 4.9 30.75 4.3 31.8 3.9 30.45" fill="#ffc567" fill-rule="evenodd" stroke="none"/>
      <path d="M7.05 28.25 Q7.5 27.75 7.8 28.05 8.05 28.35 7.65 29.2 7.2 30.1 6.9 29.45 6.55 28.85 7.05 28.25" fill="#ffc567" fill-rule="evenodd" stroke="none"/>
      <path d="M10.0 27.05 Q9.8 27.85 9.4 26.85 9.55 26.35 9.85 26.4 10.15 26.45 10.0 27.05" fill="#ffc567" fill-rule="evenodd" stroke="none"/>
      <path d="M11.65 24.85 Q11.8 24.45 12.15 24.75 12.55 25.0 12.25 25.5 11.9 26.1 11.65 25.8 11.4 25.55 11.65 24.85" fill="#ffc567" fill-rule="evenodd" stroke="none"/>
    </g>
  </defs>
</svg>
